papirus/16x16/apps/python.svg

<svg height="16" viewBox="0 0 16 16" width="16" xmlns="http://www.w3.org/2000/svg"><path d="m12 4v2c0 1.108-.892 2-2 2h-4c0 0-2 0-2 2v3.5c0 1.385333 1.5613333 2.5 3.5 2.5h1c1.938667 0 3.5-1.114667 3.5-2.5v-1.5h1.5c1.385333 0 2.5-1.561333 2.5-3.5v-1c0-1.9386667-1.114667-3.5-2.5-3.5z" fill="#ffc851"/><path d="m10.5 13a .4999999.4999999 0 0 1  .5.5.4999999.4999999 0 0 1 -.5.5.4999999.4999999 0 0 1 -.5-.5.4999999.4999999 0 0 1  .5-.5z" fill="#fff"/><path d="m7.5-.00000002c-1.9386667 0-3.5 1.11500002-3.5 2.50000002v1.5h-1.5c-1.385 0-2.50000002 1.5613333-2.50000002 3.5v1c0 1.938667 1.11500002 3.5 2.50000002 3.5h1.5v-2c0-1.108.892-2 2-2h4c0 0 2 0 2-2v-3.5c0-1.385-1.561333-2.50000002-3.5-2.50000002z" fill="#4795d1"/><path d="m5.5 2a .49999998.49999998 0 0 1  .5.5.49999998.49999998 0 0 1 -.5.5.49999998.49999998 0 0 1 -.5-.5.49999998.49999998 0 0 1  .5-.5z" fill="#fff"/></svg>

<?xml version="1.0" encoding="UTF-8" standalone="no"?>
<!-- Created with Inkscape (http://www.inkscape.org/) -->

<svg
   xmlns:dc="http://purl.org/dc/elements/1.1/"
   xmlns:cc="http://creativecommons.org/ns#"
   xmlns:rdf="http://www.w3.org/1999/02/22-rdf-syntax-ns#"
   xmlns:svg="http://www.w3.org/2000/svg"
   xmlns="http://www.w3.org/2000/svg"
   xmlns:sodipodi="http://sodipodi.sourceforge.net/DTD/sodipodi-0.dtd"
   xmlns:inkscape="http://www.inkscape.org/namespaces/inkscape"
   id="svg4688"
   height="16"
   viewBox="0 0 16 16"
   width="16"
   version="1.1"
   inkscape:version="0.91 r13725"
   sodipodi:docname="python.svg">
  <defs
     id="defs13" />
  <sodipodi:namedview
     pagecolor="#ffffff"
     bordercolor="#666666"
     borderopacity="1"
     objecttolerance="10"
     gridtolerance="10"
     guidetolerance="10"
     inkscape:pageopacity="0"
     inkscape:pageshadow="2"
     inkscape:window-width="1600"
     inkscape:window-height="847"
     id="namedview11"
     showgrid="false"
     inkscape:zoom="18.55"
     inkscape:cx="7.6873315"
     inkscape:cy="16"
     inkscape:window-x="0"
     inkscape:window-y="0"
     inkscape:window-maximized="1"
     inkscape:current-layer="svg4688" />
  <metadata
     id="metadata4693">
    <rdf:RDF>
      <cc:Work
         rdf:about="">
        <dc:format>image/svg+xml</dc:format>
        <dc:type
           rdf:resource="http://purl.org/dc/dcmitype/StillImage" />
        <dc:title />
      </cc:Work>
    </rdf:RDF>
  </metadata>
  <path
     inkscape:connector-curvature="0"
     style="color:#000000;fill:#ffc851"
     d="m 12,4 0,2 c 0,1.108 -0.892,2 -2,2 L 6,8 C 6,8 4,8 4,10 l 0,3.5 C 4,14.885333 5.5613333,16 7.5,16 l 1,0 c 1.938667,0 3.5,-1.114667 3.5,-2.5 l 0,-1.5 1.5,0 C 14.885333,12 16,10.438667 16,8.5 l 0,-1 C 16,5.5613333 14.885333,4 13.5,4 L 12,4 Z"
     id="path4161" />
  <path
     inkscape:connector-curvature="0"
     style="color:#000000;fill:#ffffff;fill-opacity:1"
     d="M 10.5,13 A 0.4999999,0.4999999 0 0 1 11,13.5 0.4999999,0.4999999 0 0 1 10.5,14 0.4999999,0.4999999 0 0 1 10,13.5 0.4999999,0.4999999 0 0 1 10.5,13 Z"
     id="path4204-3" />
  <path
     inkscape:connector-curvature="0"
     style="color:#000000;fill:#4795d1"
     d="M 7.5,-2e-8 C 5.5613333,-2e-8 4,1.115 4,2.5 L 4,4 2.5,4 C 1.115,4 -2e-8,5.5613333 -2e-8,7.5 l 0,1 C -2e-8,10.438667 1.115,12 2.5,12 L 4,12 4,10 C 4,8.892 4.892,8 6,8 l 4,0 c 0,0 2,0 2,-2 L 12,2.5 C 12,1.115 10.438667,-2e-8 8.5,-2e-8 l -1,0 z"
     id="path4165" />
  <path
     inkscape:connector-curvature="0"
     style="color:#000000;fill:#ffffff;fill-opacity:1"
     d="M 5.5,2 A 0.49999998,0.49999998 0 0 1 6,2.5 0.49999998,0.49999998 0 0 1 5.5,3 0.49999998,0.49999998 0 0 1 5,2.5 0.49999998,0.49999998 0 0 1 5.5,2 Z"
     id="path4202-7" />
</svg>
